Papirus/64x64/apps/io.github.lainsce.DotMatrix.svg

<?xml version="1.0" encoding="UTF-8" standalone="no"?>
<svg
   id="_图层_1"
   version="1.1"
   viewBox="0 0 64 64" width="64" height="64"
   sodipodi:docname="io.github.lainsce.DotMatrix.svg"
   xml:space="preserve"
   inkscape:version="1.4 (e7c3feb100, 2024-10-09)"
   xmlns:inkscape="http://www.inkscape.org/namespaces/inkscape"
   xmlns:sodipodi="http://sodipodi.sourceforge.net/DTD/sodipodi-0.dtd"
   xmlns:xlink="http://www.w3.org/1999/xlink"
   xmlns="http://www.w3.org/2000/svg"
   xmlns:svg="http://www.w3.org/2000/svg"><sodipodi:namedview
     id="namedview26"
     pagecolor="#505050"
     bordercolor="#eeeeee"
     borderopacity="1"
     inkscape:showpageshadow="0"
     inkscape:pageopacity="0"
     inkscape:pagecheckerboard="0"
     inkscape:deskcolor="#505050"
     inkscape:zoom="7.5572037"
     inkscape:cx="32.220913"
     inkscape:cy="42.740677"
     inkscape:window-width="1920"
     inkscape:window-height="939"
     inkscape:window-x="0"
     inkscape:window-y="34"
     inkscape:window-maximized="1"
     inkscape:current-layer="_图层_1" /><!-- Generator: Adobe Illustrator 29.0.1, SVG Export Plug-In . SVG Version: 2.1.0 Build 192)  --><defs
     id="defs6"><style
       id="style1">
      .st0 {
        fill-opacity: .5;
      }

      .st0, .st1, .st2, .st3, .st4, .st5, .st6, .st7 {
        fill: #fff;
      }

      .st8 {
        fill: #133c9a;
      }

      .st2, .st9 {
        display: none;
      }

      .st3 {
        fill-opacity: .2;
      }

      .st4 {
        fill-opacity: .9;
      }

      .st10 {
        fill: #3370ff;
      }

      .st11 {
        fill: url(#_未命名的渐变_3);
      }

      .st12 {
        fill: url(#_未命名的渐变);
      }

      .st5 {
        fill-opacity: .3;
      }

      .st6 {
        fill-opacity: 0;
      }

      .st7 {
        fill-opacity: .7;
      }

      .st13 {
        fill: #00d6b9;
      }

      .st14 {
        fill: url(#_未命名的渐变_2);
      }
    </style><radialGradient
       id="_未命名的渐变"
       data-name="未命名的渐变"
       cx="123.9"
       cy="-40.2"
       fx="123.9"
       fy="-40.2"
       r="59.4"
       gradientTransform="translate(-26.8 25.5) scale(.6 -.7)"
       gradientUnits="userSpaceOnUse"><stop
         offset="0"
         stop-color="#db202e"
         id="stop1" /><stop
         offset="1"
         stop-color="#e01b24"
         id="stop2" /></radialGradient><radialGradient
       id="_未命名的渐变_2"
       data-name="未命名的渐变 2"
       cx="67.6"
       cy="26.8"
       fx="67.6"
       fy="26.8"
       r="105.2"
       gradientTransform="translate(-26.6 25.3) scale(.6 -.7)"
       gradientUnits="userSpaceOnUse"><stop
         offset="0"
         stop-color="#ffb648"
         id="stop3" /><stop
         offset="1"
         stop-color="#ff7800"
         stop-opacity="0"
         id="stop4" /></radialGradient><radialGradient
       id="_未命名的渐变_3"
       data-name="未命名的渐变 3"
       cx="61.7"
       cy="18.6"
       fx="61.7"
       fy="18.6"
       r="68"
       gradientTransform="translate(-26.8 25.8) scale(.6 -.7)"
       gradientUnits="userSpaceOnUse"><stop
         offset="0"
         stop-color="#c64600"
         id="stop5" /><stop
         offset="1"
         stop-color="#a51d2d"
         id="stop6" /></radialGradient><linearGradient
       id="a"><stop
         offset="0"
         stop-color="#fff"
         id="stop1-3" /><stop
         offset="1"
         stop-color="#fff"
         stop-opacity="0"
         id="stop2-6" /></linearGradient><linearGradient
       gradientTransform="rotate(-90,110.91,115.434)"
       gradientUnits="userSpaceOnUse"
       xlink:href="#a"
       id="b"
       y2="24.145"
       x2="108.974"
       y1="16.246"
       x1="108.118" /><linearGradient
       gradientTransform="rotate(90,135.136,85.779)"
       gradientUnits="userSpaceOnUse"
       xlink:href="#a"
       id="c"
       y2="24.145"
       x2="108.974"
       y1="16.246"
       x1="108.118" /><linearGradient
       gradientUnits="userSpaceOnUse"
       xlink:href="#a"
       id="d"
       y2="24.145"
       x2="108.974"
       y1="16.246"
       x1="108.118" /><linearGradient
       gradientTransform="rotate(180,108.012,88.805)"
       gradientUnits="userSpaceOnUse"
       xlink:href="#a"
       id="e"
       y2="24.145"
       x2="108.974"
       y1="16.246"
       x1="108.118" /></defs><path
     class="st1"
     d="M47.5,64.1H13.8c-7.6,0-13.8-6.3-13.8-13.8V13.7C0,6.2,6.2,0,13.7,0h36.6c7.5,0,13.7,6.2,13.7,13.7v36.6c0,7.5-6.2,13.7-13.7,13.7h-2.9.1Z"
     id="path6"
     style="fill:#e4e4e4;fill-opacity:1" /><g
     id="g38"
     transform="matrix(1.1441387,0,0,1.14161,-4.6786013,-4.4897642)"><path
       style="opacity:0.2"
       d="m 11,11 c -1.6582034,0 -3,1.341796 -3,3 0,1.658204 1.3417966,3 3,3 1.658204,0 3,-1.341796 3,-3 0,-1.658204 -1.341796,-3 -3,-3 z m 42,0 c -1.658205,0 -3,1.341795 -3,3 0,1.658205 1.341795,3 3,3 1.658205,0 3,-1.341795 3,-3 0,-1.658205 -1.341795,-3 -3,-3 z M 22.5,12 C 21.670899,12 21,12.670896 21,13.5 21,14.329101 21.670899,15 22.5,15 23.329102,15 24,14.329101 24,13.5 24,12.670896 23.329102,12 22.5,12 Z m 10,0 C 31.670898,12 31,12.670896 31,13.5 31,14.329103 31.670898,15 32.5,15 33.329102,15 34,14.329103 34,13.5 34,12.670896 33.329102,12 32.5,12 Z m 9,0 C 40.670897,12 40,12.670896 40,13.5 40,14.329103 40.670897,15 41.5,15 42.329102,15 43,14.329103 43,13.5 43,12.670896 42.329102,12 41.5,12 Z m -31,10 C 9.670899,22 9,22.670896 9,23.5 9,24.329101 9.670899,25 10.5,25 11.329102,25 12,24.329101 12,23.5 12,22.670896 11.329102,22 10.5,22 Z m 12,0 C 21.670899,22 21,22.670896 21,23.5 21,24.329101 21.670899,25 22.5,25 23.329102,25 24,24.329101 24,23.5 24,22.670896 23.329102,22 22.5,22 Z m 10,0 C 31.670898,22 31,22.670896 31,23.5 31,24.329103 31.670898,25 32.5,25 33.329102,25 34,24.329103 34,23.5 34,22.670896 33.329102,22 32.5,22 Z m 9,0 C 40.670897,22 40,22.670896 40,23.5 40,24.329103 40.670897,25 41.5,25 42.329102,25 43,24.329103 43,23.5 43,22.670896 42.329102,22 41.5,22 Z m 12,0 C 52.670899,22 52,22.670896 52,23.5 52,24.329101 52.670899,25 53.5,25 54.329102,25 55,24.329101 55,23.5 55,22.670896 54.329102,22 53.5,22 Z m -43,8 C 9.670899,30 9,30.670896 9,31.5 9,32.329101 9.670899,33 10.5,33 11.329102,33 12,32.329101 12,31.5 12,30.670896 11.329102,30 10.5,30 Z m 12,0 C 21.670899,30 21,30.670896 21,31.5 21,32.329101 21.670899,33 22.5,33 23.329102,33 24,32.329101 24,31.5 24,30.670896 23.329102,30 22.5,30 Z m 10,0 C 31.670898,30 31,30.670896 31,31.5 31,32.329103 31.670898,33 32.5,33 33.329102,33 34,32.329103 34,31.5 34,30.670896 33.329102,30 32.5,30 Z m 9,0 C 40.670897,30 40,30.670896 40,31.5 40,32.329103 40.670897,33 41.5,33 42.329102,33 43,32.329103 43,31.5 43,30.670896 42.329102,30 41.5,30 Z m 12,0 C 52.670899,30 52,30.670896 52,31.5 52,32.329101 52.670899,33 53.5,33 54.329102,33 55,32.329101 55,31.5 55,30.670896 54.329102,30 53.5,30 Z m -43,8 C 9.670899,38 9,38.670896 9,39.5 9,40.329101 9.670899,41 10.5,41 11.329102,41 12,40.329101 12,39.5 12,38.670896 11.329102,38 10.5,38 Z m 12,0 C 21.670899,38 21,38.670896 21,39.5 21,40.329101 21.670899,41 22.5,41 23.329102,41 24,40.329101 24,39.5 24,38.670896 23.329102,38 22.5,38 Z m 10,0 C 31.670898,38 31,38.670896 31,39.5 31,40.329103 31.670898,41 32.5,41 33.329102,41 34,40.329103 34,39.5 34,38.670896 33.329102,38 32.5,38 Z m 9,0 C 40.670897,38 40,38.670896 40,39.5 40,40.329103 40.670897,41 41.5,41 42.329102,41 43,40.329103 43,39.5 43,38.670896 42.329102,38 41.5,38 Z m 12,0 C 52.670899,38 52,38.670896 52,39.5 52,40.329101 52.670899,41 53.5,41 54.329102,41 55,40.329101 55,39.5 55,38.670896 54.329102,38 53.5,38 Z M 11,47 c -1.6582034,0 -3,1.341796 -3,3 0,1.658204 1.3417966,3 3,3 1.658204,0 3,-1.341796 3,-3 0,-1.658204 -1.341796,-3 -3,-3 z m 42,0 c -1.658205,0 -3,1.341795 -3,3 0,1.658205 1.341795,3 3,3 1.658205,0 3,-1.341795 3,-3 0,-1.658205 -1.341795,-3 -3,-3 z M 22.5,48 C 21.670899,48 21,48.670896 21,49.5 21,50.329101 21.670899,51 22.5,51 23.329102,51 24,50.329101 24,49.5 24,48.670896 23.329102,48 22.5,48 Z m 10,0 C 31.670898,48 31,48.670896 31,49.5 31,50.329103 31.670898,51 32.5,51 33.329102,51 34,50.329103 34,49.5 34,48.670896 33.329102,48 32.5,48 Z m 9,0 C 40.670897,48 40,48.670896 40,49.5 40,50.329103 40.670897,51 41.5,51 42.329102,51 43,50.329103 43,49.5 43,48.670896 42.329102,48 41.5,48 Z"
       id="path3" /><path
       style="opacity:0.1"
       d="m 11.153549,14.024052 c -0.875211,-0.02591 -1.3138971,0.96955 -1.099957,1.723163 0.427881,7.300774 2.841736,15.042052 8.68512,19.827177 2.199915,1.805219 4.819066,3.079236 7.580843,3.761592 -4.045421,2.379607 -6.453811,7.294293 -6.436523,11.790065 0.291736,1.153095 1.743939,0.868061 2.606185,0.766572 4.110252,-0.36709 8.336056,-3.450646 9.544064,-7.356915 1.311736,4.353255 6.105878,7.525344 10.665623,7.44113 0.931394,0.187863 1.625082,-0.80328 1.357115,-1.658384 C 43.796698,46.079643 41.582808,41.564436 37.747004,39.335984 44.104712,37.882741 49.234962,32.901115 51.573181,26.913231 53.092377,23.097654 53.997842,18.986244 54,14.876998 53.714749,13.728221 52.279834,14.021894 51.41975,14.065081 45.269499,14.270219 39.272683,17.416396 35.858277,22.57293 34.043024,25.185747 32.826374,28.172132 32.033281,31.240572 30.442772,24.67614 26.3282,18.33628 19.894857,15.691074 17.143884,14.514227 14.13575,14.019734 11.153549,14.024052 Z m 1.220974,2.314827 c 5.378766,0.129567 10.753211,2.660322 13.800244,7.173369 2.87199,4.169712 4.38686,9.20748 4.637539,14.240932 -5.376607,-0.129566 -10.753212,-2.658163 -13.800245,-7.171211 -2.867667,-4.156754 -4.389022,-9.224755 -4.637538,-14.24309 z m 39.317513,0 c -0.337117,5.97277 -2.320929,12.120446 -6.53491,16.499614 -3.092412,3.176407 -7.524656,4.752734 -11.90071,4.914687 0.337117,-5.97277 2.320929,-12.118287 6.534909,-16.497454 3.098896,-3.182886 7.518173,-4.748417 11.900711,-4.916847 z M 30.801502,40.245072 c -0.33928,3.675218 -2.82979,7.747758 -6.624534,8.907329 -1.370082,0.632691 -2.470038,0.488014 -1.72881,-1.179005 0.639659,-3.351317 3.456481,-6.737181 6.991904,-7.484317 0.44733,-0.11229 0.903304,-0.192183 1.36144,-0.244007 z m 2.465718,0 c 3.306353,0.205138 6.618039,2.640889 7.625072,5.741719 0.44517,1.384146 1.774193,4.577828 -0.836312,3.258463 -3.987074,-1.025692 -6.434353,-5.219154 -6.78876,-9.000182 z"
       id="path4-2" /><path
       style="fill:#009dd6"
       d="m 11.153549,13.024052 c -0.875211,-0.02591 -1.3138971,0.96955 -1.099957,1.723163 0.427881,7.300774 2.841736,15.042052 8.68512,19.827177 2.199915,1.805219 4.819066,3.079236 7.580843,3.761592 -4.045421,2.379607 -6.453811,7.294293 -6.436523,11.790065 0.291736,1.153095 1.743939,0.868061 2.606185,0.766572 4.110252,-0.36709 8.336056,-3.450646 9.544064,-7.356915 1.311736,4.353255 6.105878,7.525344 10.665623,7.44113 0.931394,0.187863 1.625082,-0.80328 1.357115,-1.658384 C 43.796698,45.079643 41.582808,40.564436 37.747004,38.335984 44.104712,36.882741 49.234962,31.901115 51.573181,25.913231 53.092377,22.097654 53.997842,17.986244 54,13.876998 53.714749,12.728221 52.279834,13.021894 51.41975,13.065081 45.269499,13.270219 39.272683,16.416396 35.858277,21.57293 34.043024,24.185747 32.826374,27.172132 32.033281,30.240572 30.442772,23.67614 26.3282,17.33628 19.894857,14.691074 17.143884,13.514227 14.13575,13.019734 11.153549,13.024052 Z m 1.220974,2.314827 c 5.378766,0.129567 10.753211,2.660322 13.800244,7.173369 2.87199,4.169712 4.38686,9.20748 4.637539,14.240932 -5.376607,-0.129566 -10.753212,-2.658163 -13.800245,-7.171211 -2.867667,-4.156754 -4.389022,-9.224755 -4.637538,-14.24309 z m 39.317513,0 c -0.337117,5.97277 -2.320929,12.120446 -6.53491,16.499614 -3.092412,3.176407 -7.524656,4.752734 -11.90071,4.914687 0.337117,-5.97277 2.320929,-12.118287 6.534909,-16.497454 3.098896,-3.182886 7.518173,-4.748417 11.900711,-4.916847 z M 30.801502,39.245072 c -0.33928,3.675218 -2.82979,7.747758 -6.624534,8.907329 -1.370082,0.632691 -2.470038,0.488014 -1.72881,-1.179005 0.639659,-3.351317 3.456481,-6.737181 6.991904,-7.484317 0.44733,-0.11229 0.903304,-0.192183 1.36144,-0.244007 z m 2.465718,0 c 3.306353,0.205138 6.618039,2.640889 7.625072,5.741719 0.44517,1.384146 1.774193,4.577828 -0.836312,3.258463 -3.987074,-1.025692 -6.434353,-5.219154 -6.78876,-9.000182 z"
       id="path5" /></g></svg>

<svg xmlns="http://www.w3.org/2000/svg" width="64" height="64" version="1.1">
 <path style="opacity:0.2" d="M 8.3076923,5 H 55.692306 C 58.071214,5 60,7.0052083 60,9.4798181 V 56.520181 C 60,58.994791 58.071214,61 55.692306,61 H 8.3076923 C 5.928786,61 4,58.994791 4,56.520181 V 9.4798181 C 4,7.0052083 5.928786,5 8.3076923,5 Z m 0,0"/>
 <path style="fill:#e4e4e4" d="M 8.3076923,4 H 55.692306 C 58.071214,4 60,6.0052083 60,8.4798181 V 55.520181 C 60,57.994791 58.071214,60 55.692306,60 H 8.3076923 C 5.928786,60 4,57.994791 4,55.520181 V 8.4798181 C 4,6.0052083 5.928786,4 8.3076923,4 Z m 0,0"/>
 <path style="opacity:0.2" d="M 11 11 C 9.3417966 11 8 12.341796 8 14 C 8 15.658204 9.3417966 17 11 17 C 12.658204 17 14 15.658204 14 14 C 14 12.341796 12.658204 11 11 11 z M 53 11 C 51.341795 11 50 12.341795 50 14 C 50 15.658205 51.341795 17 53 17 C 54.658205 17 56 15.658205 56 14 C 56 12.341795 54.658205 11 53 11 z M 22.5 12 C 21.670899 12 21 12.670896 21 13.5 C 21 14.329101 21.670899 15 22.5 15 C 23.329102 15 24 14.329101 24 13.5 C 24 12.670896 23.329102 12 22.5 12 z M 32.5 12 C 31.670898 12 31 12.670896 31 13.5 C 31 14.329103 31.670898 15 32.5 15 C 33.329102 15 34 14.329103 34 13.5 C 34 12.670896 33.329102 12 32.5 12 z M 41.5 12 C 40.670897 12 40 12.670896 40 13.5 C 40 14.329103 40.670897 15 41.5 15 C 42.329102 15 43 14.329103 43 13.5 C 43 12.670896 42.329102 12 41.5 12 z M 10.5 22 C 9.670899 22 9 22.670896 9 23.5 C 9 24.329101 9.670899 25 10.5 25 C 11.329102 25 12 24.329101 12 23.5 C 12 22.670896 11.329102 22 10.5 22 z M 22.5 22 C 21.670899 22 21 22.670896 21 23.5 C 21 24.329101 21.670899 25 22.5 25 C 23.329102 25 24 24.329101 24 23.5 C 24 22.670896 23.329102 22 22.5 22 z M 32.5 22 C 31.670898 22 31 22.670896 31 23.5 C 31 24.329103 31.670898 25 32.5 25 C 33.329102 25 34 24.329103 34 23.5 C 34 22.670896 33.329102 22 32.5 22 z M 41.5 22 C 40.670897 22 40 22.670896 40 23.5 C 40 24.329103 40.670897 25 41.5 25 C 42.329102 25 43 24.329103 43 23.5 C 43 22.670896 42.329102 22 41.5 22 z M 53.5 22 C 52.670899 22 52 22.670896 52 23.5 C 52 24.329101 52.670899 25 53.5 25 C 54.329102 25 55 24.329101 55 23.5 C 55 22.670896 54.329102 22 53.5 22 z M 10.5 30 C 9.670899 30 9 30.670896 9 31.5 C 9 32.329101 9.670899 33 10.5 33 C 11.329102 33 12 32.329101 12 31.5 C 12 30.670896 11.329102 30 10.5 30 z M 22.5 30 C 21.670899 30 21 30.670896 21 31.5 C 21 32.329101 21.670899 33 22.5 33 C 23.329102 33 24 32.329101 24 31.5 C 24 30.670896 23.329102 30 22.5 30 z M 32.5 30 C 31.670898 30 31 30.670896 31 31.5 C 31 32.329103 31.670898 33 32.5 33 C 33.329102 33 34 32.329103 34 31.5 C 34 30.670896 33.329102 30 32.5 30 z M 41.5 30 C 40.670897 30 40 30.670896 40 31.5 C 40 32.329103 40.670897 33 41.5 33 C 42.329102 33 43 32.329103 43 31.5 C 43 30.670896 42.329102 30 41.5 30 z M 53.5 30 C 52.670899 30 52 30.670896 52 31.5 C 52 32.329101 52.670899 33 53.5 33 C 54.329102 33 55 32.329101 55 31.5 C 55 30.670896 54.329102 30 53.5 30 z M 10.5 38 C 9.670899 38 9 38.670896 9 39.5 C 9 40.329101 9.670899 41 10.5 41 C 11.329102 41 12 40.329101 12 39.5 C 12 38.670896 11.329102 38 10.5 38 z M 22.5 38 C 21.670899 38 21 38.670896 21 39.5 C 21 40.329101 21.670899 41 22.5 41 C 23.329102 41 24 40.329101 24 39.5 C 24 38.670896 23.329102 38 22.5 38 z M 32.5 38 C 31.670898 38 31 38.670896 31 39.5 C 31 40.329103 31.670898 41 32.5 41 C 33.329102 41 34 40.329103 34 39.5 C 34 38.670896 33.329102 38 32.5 38 z M 41.5 38 C 40.670897 38 40 38.670896 40 39.5 C 40 40.329103 40.670897 41 41.5 41 C 42.329102 41 43 40.329103 43 39.5 C 43 38.670896 42.329102 38 41.5 38 z M 53.5 38 C 52.670899 38 52 38.670896 52 39.5 C 52 40.329101 52.670899 41 53.5 41 C 54.329102 41 55 40.329101 55 39.5 C 55 38.670896 54.329102 38 53.5 38 z M 11 47 C 9.3417966 47 8 48.341796 8 50 C 8 51.658204 9.3417966 53 11 53 C 12.658204 53 14 51.658204 14 50 C 14 48.341796 12.658204 47 11 47 z M 53 47 C 51.341795 47 50 48.341795 50 50 C 50 51.658205 51.341795 53 53 53 C 54.658205 53 56 51.658205 56 50 C 56 48.341795 54.658205 47 53 47 z M 22.5 48 C 21.670899 48 21 48.670896 21 49.5 C 21 50.329101 21.670899 51 22.5 51 C 23.329102 51 24 50.329101 24 49.5 C 24 48.670896 23.329102 48 22.5 48 z M 32.5 48 C 31.670898 48 31 48.670896 31 49.5 C 31 50.329103 31.670898 51 32.5 51 C 33.329102 51 34 50.329103 34 49.5 C 34 48.670896 33.329102 48 32.5 48 z M 41.5 48 C 40.670897 48 40 48.670896 40 49.5 C 40 50.329103 40.670897 51 41.5 51 C 42.329102 51 43 50.329103 43 49.5 C 43 48.670896 42.329102 48 41.5 48 z"/>
 <path style="opacity:0.1" d="m 11.153549,14.024052 c -0.875211,-0.02591 -1.3138971,0.96955 -1.099957,1.723163 0.427881,7.300774 2.841736,15.042052 8.68512,19.827177 2.199915,1.805219 4.819066,3.079236 7.580843,3.761592 -4.045421,2.379607 -6.453811,7.294293 -6.436523,11.790065 0.291736,1.153095 1.743939,0.868061 2.606185,0.766572 4.110252,-0.36709 8.336056,-3.450646 9.544064,-7.356915 1.311736,4.353255 6.105878,7.525344 10.665623,7.44113 0.931394,0.187863 1.625082,-0.80328 1.357115,-1.658384 C 43.796698,46.079643 41.582808,41.564436 37.747004,39.335984 44.104712,37.882741 49.234962,32.901115 51.573181,26.913231 53.092377,23.097654 53.997842,18.986244 54,14.876998 53.714749,13.728221 52.279834,14.021894 51.41975,14.065081 45.269499,14.270219 39.272683,17.416396 35.858277,22.57293 34.043024,25.185747 32.826374,28.172132 32.033281,31.240572 30.442772,24.67614 26.3282,18.33628 19.894857,15.691074 17.143884,14.514227 14.13575,14.019734 11.153549,14.024052 Z m 1.220974,2.314827 c 5.378766,0.129567 10.753211,2.660322 13.800244,7.173369 2.87199,4.169712 4.38686,9.20748 4.637539,14.240932 -5.376607,-0.129566 -10.753212,-2.658163 -13.800245,-7.171211 -2.867667,-4.156754 -4.389022,-9.224755 -4.637538,-14.24309 z m 39.317513,0 c -0.337117,5.97277 -2.320929,12.120446 -6.53491,16.499614 -3.092412,3.176407 -7.524656,4.752734 -11.90071,4.914687 0.337117,-5.97277 2.320929,-12.118287 6.534909,-16.497454 3.098896,-3.182886 7.518173,-4.748417 11.900711,-4.916847 z M 30.801502,40.245072 c -0.33928,3.675218 -2.82979,7.747758 -6.624534,8.907329 -1.370082,0.632691 -2.470038,0.488014 -1.72881,-1.179005 0.639659,-3.351317 3.456481,-6.737181 6.991904,-7.484317 0.44733,-0.11229 0.903304,-0.192183 1.36144,-0.244007 z m 2.465718,0 c 3.306353,0.205138 6.618039,2.640889 7.625072,5.741719 0.44517,1.384146 1.774193,4.577828 -0.836312,3.258463 -3.987074,-1.025692 -6.434353,-5.219154 -6.78876,-9.000182 z"/>
 <path style="fill:#009dd6" d="m 11.153549,13.024052 c -0.875211,-0.02591 -1.3138971,0.96955 -1.099957,1.723163 0.427881,7.300774 2.841736,15.042052 8.68512,19.827177 2.199915,1.805219 4.819066,3.079236 7.580843,3.761592 -4.045421,2.379607 -6.453811,7.294293 -6.436523,11.790065 0.291736,1.153095 1.743939,0.868061 2.606185,0.766572 4.110252,-0.36709 8.336056,-3.450646 9.544064,-7.356915 1.311736,4.353255 6.105878,7.525344 10.665623,7.44113 0.931394,0.187863 1.625082,-0.80328 1.357115,-1.658384 C 43.796698,45.079643 41.582808,40.564436 37.747004,38.335984 44.104712,36.882741 49.234962,31.901115 51.573181,25.913231 53.092377,22.097654 53.997842,17.986244 54,13.876998 53.714749,12.728221 52.279834,13.021894 51.41975,13.065081 45.269499,13.270219 39.272683,16.416396 35.858277,21.57293 34.043024,24.185747 32.826374,27.172132 32.033281,30.240572 30.442772,23.67614 26.3282,17.33628 19.894857,14.691074 17.143884,13.514227 14.13575,13.019734 11.153549,13.024052 Z m 1.220974,2.314827 c 5.378766,0.129567 10.753211,2.660322 13.800244,7.173369 2.87199,4.169712 4.38686,9.20748 4.637539,14.240932 -5.376607,-0.129566 -10.753212,-2.658163 -13.800245,-7.171211 -2.867667,-4.156754 -4.389022,-9.224755 -4.637538,-14.24309 z m 39.317513,0 c -0.337117,5.97277 -2.320929,12.120446 -6.53491,16.499614 -3.092412,3.176407 -7.524656,4.752734 -11.90071,4.914687 0.337117,-5.97277 2.320929,-12.118287 6.534909,-16.497454 3.098896,-3.182886 7.518173,-4.748417 11.900711,-4.916847 z M 30.801502,39.245072 c -0.33928,3.675218 -2.82979,7.747758 -6.624534,8.907329 -1.370082,0.632691 -2.470038,0.488014 -1.72881,-1.179005 0.639659,-3.351317 3.456481,-6.737181 6.991904,-7.484317 0.44733,-0.11229 0.903304,-0.192183 1.36144,-0.244007 z m 2.465718,0 c 3.306353,0.205138 6.618039,2.640889 7.625072,5.741719 0.44517,1.384146 1.774193,4.577828 -0.836312,3.258463 -3.987074,-1.025692 -6.434353,-5.219154 -6.78876,-9.000182 z"/>
 <path style="fill:#ffffff;opacity:0.2" d="M 8.3085938 4 C 5.9296875 4 4 6.005859 4 8.4804688 L 4 9.4804688 C 4 7.005859 5.9296875 5 8.3085938 5 L 55.691406 5 C 58.070314 5 60 7.005859 60 9.4804688 L 60 8.4804688 C 60 6.005859 58.070314 4 55.691406 4 L 8.3085938 4 z"/>
</svg>
